T: Apples In Winter
M: 6/8
L: 1/8
K: Edor
A|:BdB cec|dfd ???(desending line)|D3 FEF|ABc d2A|BdB cec|def gfe|def g2a|bee e2:||f|gef gef|gef gfe|dfe dfe|dfe def|edB def|gbc gfe|fdB AGF|GEE E2:||
